src/actions/24/prevfuzzyuntrans.svg

<svg xmlns="http://www.w3.org/2000/svg" viewBox="0 0 24 24">
  <defs id="defs3051">
    <style type="text/css" id="current-color-scheme">
      .ColorScheme-Text {
        color:#363636;
      }
      </style>
  </defs><g transform="translate(1,1)">
 <path 
     style="fill:currentColor;fill-opacity:1;stroke:none" 
     d="M 8.96875 3 C 7.21782 3 5.56187 3.4216019 4 4.2636719 L 4.7773438 6.0507812 C 5.5582637 5.6672613 6.2600456 5.3933025 6.8847656 5.2265625 C 7.5177356 5.0598325 8.1626925 4.9765625 8.8203125 4.9765625 C 9.8067525 4.9765625 10.563734 5.1968119 11.089844 5.6386719 C 11.615944 6.0805419 11.878906 6.7136725 11.878906 7.5390625 C 11.878906 7.9809325 11.822111 8.369625 11.707031 8.703125 C 11.591951 9.036605 11.394724 9.369635 11.115234 9.703125 C 10.835754 10.036615 10.247563 10.586476 9.3515625 11.353516 C 8.2514825 12.356846 7.10046 14.139 7 16 L 9 16 L 8.9941406 15.96875 C 8.9941406 15.21007 9.1256119 14.601138 9.3886719 14.142578 C 9.6599519 13.675688 10.201805 13.087576 11.015625 12.378906 C 12.010295 11.536836 12.673153 10.903726 13.001953 10.478516 C 13.338993 10.053316 13.589506 9.6041364 13.753906 9.1289062 C 13.918406 8.6536763 14 8.1071944 14 7.4902344 C 14 6.0728944 13.55227 4.97119 12.65625 4.1875 C 11.76024 3.39546 10.53061 3 8.96875 3 z M 16.292969 12 L 13 15.292969 L 12.792969 15.5 L 13 15.707031 L 16.292969 19 L 17 18.292969 L 14.707031 16 L 19 16 L 19 15 L 14.707031 15 L 17 12.707031 L 16.292969 12 z M 7 17 L 7 19 L 9 19 L 9 17 L 7 17 z "
	 class="ColorScheme-Text"
     />
</g></svg>

<svg xmlns="http://www.w3.org/2000/svg" viewBox="0 0 24 24">
    <path d="M8.969 3C7.218 3 5.562 3.422 4 4.264l.777 1.787c.781-.384 1.483-.658 2.108-.824a7.566 7.566 0 0 1 1.935-.25c.987 0 1.744.22 2.27.662.526.442.789 1.075.789 1.9 0 .442-.057.83-.172 1.164a3.198 3.198 0 0 1-.592 1c-.28.334-.867.883-1.763 1.65C8.252 12.358 7.1 14.14 7 16h2l-.006-.031c0-.759.132-1.368.395-1.826.271-.467.813-1.055 1.627-1.764.994-.842 1.657-1.475 1.986-1.9.337-.426.588-.875.752-1.35.164-.475.246-1.022.246-1.639 0-1.417-.448-2.519-1.344-3.302C11.76 3.395 10.531 3 8.97 3zm7.324 9L13 15.293l-.207.207.207.207L16.293 19l.707-.707L14.707 16H19v-1h-4.293L17 12.707 16.293 12zM7 17v2h2v-2H7z" style="fill:currentColor;fill-opacity:1;stroke:none;color:#050505;opacity:.7" transform="translate(1 1)"/>
</svg>
